src/images/profile_main_in.svg

<svg width="100" height="32" xmlns="http://www.w3.org/2000/svg"><rect opacity=".2" x=".95" y=".9" width="98" height="30" rx="15" stroke="#AAA" stroke-width="2" style="fill:none"/><path d="m32.929 20.9.934-2.695h3.977l.93 2.695h1.631l-3.664-10.182h-1.775L31.298 20.9h1.631zm1.382-3.987 1.501-4.345h.08l1.501 4.345h-3.082zm7.441 3.987h1.486v-3.053h.965l2.302 3.053h1.844l-2.993-3.923 2.958-3.713h-1.839l-2.521 3.201h-.716v-3.201h-1.486V20.9zm7.752 0h1.486v-3.053h.965l2.302 3.053h1.844l-2.993-3.923 2.958-3.713h-1.839l-2.521 3.201h-.716v-3.201h-1.486V20.9zm9.974.169c1.263 0 1.974-.641 2.257-1.213h.06V20.9h1.452v-5.071c0-2.222-1.75-2.665-2.964-2.665-1.382 0-2.654.557-3.152 1.949l1.398.318c.218-.542.775-1.064 1.774-1.064.96 0 1.452.503 1.452 1.368v.034c0 .542-.557.532-1.929.691-1.447.169-2.928.547-2.928 2.282 0 1.502 1.128 2.327 2.58 2.327zm.323-1.193c-.84 0-1.446-.378-1.446-1.114 0-.795.705-1.079 1.566-1.193.482-.065 1.625-.194 1.839-.408v.985c0 .905-.721 1.73-1.959 1.73zm6.092 3.868c1.228 0 2.008-.642 2.446-1.825l3.157-8.64-1.606-.015-1.934 5.926h-.08l-1.934-5.926h-1.591l2.795 7.735-.184.508c-.378.989-.91 1.078-1.726.855l-.358 1.218c.179.084.567.164 1.015.164zm8.46-10.48h-1.457V20.9h1.457v-3.172h3.306V20.9h1.452v-7.636h-1.452v3.177h-3.306v-3.177zm5.799 1.282h2.501V20.9h1.452v-6.354h2.491v-1.282h-6.444v1.282z"/><path fill-rule="evenodd" clip-rule="evenodd" d="M21.95 12.9a4 4 0 1 1-8 0 4 4 0 0 1 8 0zm-6 5a4 4 0 0 0-4 4v1h2v-1a2 2 0 0 1 2-2h4a2 2 0 0 1 2 2v1h2v-1a4 4 0 0 0-4-4h-4z"/></svg>

<?xml version="1.0" encoding="utf-8"?>
<svg viewBox="0 0 100 32" width="100px" height="32px" xmlns="http://www.w3.org/2000/svg">
  <path fill="black"/>
  <path fill-rule="evenodd" clip-rule="evenodd" fill="black"/>
  <rect opacity="0.2" x="0.95" y="0.9" width="98" height="30" rx="15" stroke="#AAAAAA" stroke-width="2" style="fill: none;"/>
  <path d="M 32.929 20.9 L 33.863 18.205 L 37.84 18.205 L 38.77 20.9 L 40.401 20.9 L 36.737 10.718 L 34.962 10.718 L 31.298 20.9 L 32.929 20.9 Z M 34.311 16.913 L 35.812 12.568 L 35.892 12.568 L 37.393 16.913 L 34.311 16.913 Z M 41.752 20.9 L 43.238 20.9 L 43.238 17.847 L 44.203 17.847 L 46.505 20.9 L 48.349 20.9 L 45.356 16.977 L 48.314 13.264 L 46.475 13.264 L 43.954 16.465 L 43.238 16.465 L 43.238 13.264 L 41.752 13.264 L 41.752 20.9 Z M 49.504 20.9 L 50.99 20.9 L 50.99 17.847 L 51.955 17.847 L 54.257 20.9 L 56.101 20.9 L 53.108 16.977 L 56.066 13.264 L 54.227 13.264 L 51.706 16.465 L 50.99 16.465 L 50.99 13.264 L 49.504 13.264 L 49.504 20.9 Z M 59.478 21.069 C 60.741 21.069 61.452 20.428 61.735 19.856 L 61.795 19.856 L 61.795 20.9 L 63.247 20.9 L 63.247 15.829 C 63.247 13.607 61.497 13.164 60.283 13.164 C 58.901 13.164 57.629 13.721 57.131 15.113 L 58.529 15.431 C 58.747 14.889 59.304 14.367 60.303 14.367 C 61.263 14.367 61.755 14.87 61.755 15.735 L 61.755 15.769 C 61.755 16.311 61.198 16.301 59.826 16.46 C 58.379 16.629 56.898 17.007 56.898 18.742 C 56.898 20.244 58.026 21.069 59.478 21.069 Z M 59.801 19.876 C 58.961 19.876 58.355 19.498 58.355 18.762 C 58.355 17.967 59.06 17.683 59.921 17.569 C 60.403 17.504 61.546 17.375 61.76 17.161 L 61.76 18.146 C 61.76 19.051 61.039 19.876 59.801 19.876 Z M 65.893 23.744 C 67.121 23.744 67.901 23.102 68.339 21.919 L 71.496 13.279 L 69.89 13.264 L 67.956 19.19 L 67.876 19.19 L 65.942 13.264 L 64.351 13.264 L 67.146 20.999 L 66.962 21.507 C 66.584 22.496 66.052 22.585 65.236 22.362 L 64.878 23.58 C 65.057 23.664 65.445 23.744 65.893 23.744 Z M 74.353 13.264 L 72.896 13.264 L 72.896 20.9 L 74.353 20.9 L 74.353 17.728 L 77.659 17.728 L 77.659 20.9 L 79.111 20.9 L 79.111 13.264 L 77.659 13.264 L 77.659 16.441 L 74.353 16.441 L 74.353 13.264 Z M 80.152 14.546 L 82.653 14.546 L 82.653 20.9 L 84.105 20.9 L 84.105 14.546 L 86.596 14.546 L 86.596 13.264 L 80.152 13.264 L 80.152 14.546 Z" fill="black"/>
  <path fill-rule="evenodd" clip-rule="evenodd" d="M 21.95 12.9 C 21.95 15.109 20.159 16.9 17.95 16.9 C 15.741 16.9 13.95 15.109 13.95 12.9 C 13.95 10.691 15.741 8.9 17.95 8.9 C 20.159 8.9 21.95 10.691 21.95 12.9 Z M 15.95 17.9 C 13.741 17.9 11.95 19.691 11.95 21.9 L 11.95 22.9 L 13.95 22.9 L 13.95 21.9 C 13.95 20.795 14.845 19.9 15.95 19.9 L 19.95 19.9 C 21.054 19.9 21.95 20.795 21.95 21.9 L 21.95 22.9 L 23.95 22.9 L 23.95 21.9 C 23.95 19.691 22.159 17.9 19.95 17.9 L 15.95 17.9 Z" fill="black"/>
</svg>
